X: 36863
T: Ships In Full Sail, The
R: jig
M: 6/8
K: Gmajor
|:DGG BGG|dGG BGG|efg dBG|AGA BGE|
DGG BGG|dGG BGG|efg dBG|AGF G3:|
|:dgg bgg|aga bge|dgg bgg|a3 age|
dgg bgg|aga bge|efg dBG|AGF G3:|

